X:1
T: Mrs. Douglas Henderson
C:J. Scott Skinner
R:Strathspey
Q: 128
K:D
M:4/4
L:1/16
|:d4 A3d FD3 D3F|GE3 e3d cA3 ((3A2B2c2) |d4 Ad3 F3A D3F|Eg3 f3e fd3 d3A|
d4 A3d FD3 D3F|GE3 e3d cA3 ((3A2B2c2) |d4 A3d F3A DF3|((3E2g2f2) ((3e2d2c2) dD3 D2A2|
dd3 fd3 a3g ((3f2e2d2) |AA3 c3A e3A ((3c2B2A2) |dd3 f3d a3d ((3f2e2d2) |gb3 a3g fd3 d3A|
dd3 fd3 a3g ((3f2e2d2) |AA3 c3A e3A ((3c2B2A2) |d3f a3g ((3g2b2a2) ((3g2f2e2) |((3d2c2B2) ((3A2B2c2) dD3 D4:|
